X: 42403
T: Wes And Maggie's Ceili Croft
R: reel
M: 4/4
K: Amajor
A3c B2AB|cFFE F2EF|AFFE F2EF|ABcA BAcB|
A2cA B2AB|cFFE F2EF|1 AFFE F2EF|ABcA ~B3c:|2 AF~F2 EFBF|ABcA Bcef||
|:affe f2ef|afef cB~B2|affe f2ec|ABce f2ef:|
af~f2 ef~f2|df~f2 ef~f2|af~f2 ef~f2|df~f2 e2ef|
af~f2 ef~f2|df~f2 ef~f2|~a3b afef|afec BAcB||

